src/devices/symbolic/network-cellular-symbolic.svg

<svg width="16" height="16" version="1.1" xmlns="http://www.w3.org/2000/svg">
 <path d="m2.3574 0.35742a8 8 0 0 0-2.3574 5.6426 8 8 0 0 0 2.7344 6.0195l0.66992-0.76758a7 7 0 0 1-2.4043-5.252 7 7 0 0 1 2.0508-4.9492l-0.69336-0.69336zm11.285 0-0.69336 0.69336a7 7 0 0 1 2.0508 4.9492 7 7 0 0 1-2.4043 5.252l0.66992 0.76758a8 8 0 0 0 2.7344-6.0195 8 8 0 0 0-2.3574-5.6426zm-9.166 2.1191a5 5 0 0 0-1.4766 3.5234 5 5 0 0 0 1.7129 3.7578l0.66406-0.75977a4 4 0 0 1-1.377-2.998 4 4 0 0 1 1.1719-2.8281l-0.69531-0.69531zm7.0469 0-0.69531 0.69531a4 4 0 0 1 1.1719 2.8281 4 4 0 0 1-1.377 2.998l0.66406 0.75977a5 5 0 0 0 1.7129-3.7578 5 5 0 0 0-1.4766-3.5234zm-3.5234 2.5234a1 1 0 0 0-1 1 1 1 0 0 0 1 1 1 1 0 0 0 1-1 1 1 0 0 0-1-1zm0 4c-0.277 0-0.5 0.223-0.5 0.5v6c0 0.277 0.223 0.5 0.5 0.5s0.5-0.223 0.5-0.5v-6c0-0.277-0.223-0.5-0.5-0.5z" fill="#363636" stroke-linecap="round" stroke-linejoin="round"/>
</svg>

<svg xmlns="http://www.w3.org/2000/svg" width="16" height="16">
    <path fill="#050505" fill-opacity=".7" d="M2.357.357A8 8 0 0 0 0 6a8 8 0 0 0 2.734 6.02l.67-.768A7 7 0 0 1 1 6a7 7 0 0 1 2.05-4.95L2.358.358zm11.285 0-.693.694A7 7 0 0 1 14.999 6a7 7 0 0 1-2.403 5.252l.67.768A8 8 0 0 0 16 6 8 8 0 0 0 13.642.357zm-9.166 2.12A5 5 0 0 0 3 6a5 5 0 0 0 1.713 3.758l.664-.76A4 4 0 0 1 4 6a4 4 0 0 1 1.172-2.828l-.696-.695zm7.047 0-.695.695A4 4 0 0 1 12 6a4 4 0 0 1-1.377 2.998l.664.76A5 5 0 0 0 13 6a5 5 0 0 0-1.477-3.523zM8 5a1 1 0 0 0-1 1 1 1 0 0 0 1 1 1 1 0 0 0 1-1 1 1 0 0 0-1-1zm0 4c-.277 0-.5.223-.5.5v6a.499.499 0 1 0 1 0v-6c0-.277-.223-.5-.5-.5z"/>
</svg>
